styles/emoji-one/1f1e8-1f1eb.svg

<svg xmlns="http://www.w3.org/2000/svg" viewBox="0 0 64 64"><path fill="#fff" d="M6.628 16A29.848 29.848 0 0 0 2 32h60a29.848 29.848 0 0 0-4.628-16H6.628z"/><path fill="#699635" d="M57.372 48A29.846 29.846 0 0 0 62 32H2a29.846 29.846 0 0 0 4.628 16h50.744z"/><path fill="#ffe62e" d="M6.628 48c3.937 6.229 10.1 10.902 17.373 12.912h15.998C47.27 58.902 53.436 54.228 57.372 48H6.628"/><path fill="#2a5f9e" d="M39.999 3.088H24.001A30.058 30.058 0 0 0 6.628 16h50.744A30.058 30.058 0 0 0 39.999 3.088z"/><path fill="#f42f4c" d="M40 3.088C37.452 2.384 34.771 2 32 2s-5.452.384-8 1.088v57.824a29.953 29.953 0 0 0 16 0V3.088"/><path fill="#ffe62e" d="M18 11.593L19.854 13l-.704-2.289L21 9.291l-2.285-.006L18 7l-.714 2.285L15 9.291l1.846 1.42L16.14 13z"/></svg>

<svg xmlns="http://www.w3.org/2000/svg" viewBox="0 0 64 64" enable-background="new 0 0 64 64"><path fill="#fff" d="M6.628,16C3.701,20.632,2,26.115,2,32h60c0-5.885-1.701-11.368-4.628-16H6.628z"/><path fill="#699635" d="M57.372,48C60.299,43.369,62,37.885,62,32H2c0,5.885,1.701,11.369,4.628,16H57.372z"/><path fill="#ffe62e" d="m6.628 48c3.937 6.229 10.1 10.902 17.373 12.912h15.998c7.271-2.01 13.437-6.684 17.373-12.912h-50.744"/><path fill="#2a5f9e" d="M39.999,3.088H24.001C16.729,5.098,10.564,9.771,6.628,16h50.744C53.436,9.771,47.271,5.098,39.999,3.088z"/><path fill="#f42f4c" d="m40 3.088c-2.548-.704-5.229-1.088-8-1.088s-5.452.384-8 1.088v57.824c2.548.705 5.229 1.088 8 1.088s5.452-.383 8-1.088v-57.824"/><path fill="#ffe62e" d="M18 11.593 19.854 13 19.15 10.711 21 9.291 18.715 9.285 18 7 17.286 9.285 15 9.291 16.846 10.711 16.14 13z"/></svg>
